public/svg/location-black.svg

<svg xmlns="http://www.w3.org/2000/svg" width="24" height="24" fill="none"><path fill="#000" d="M12 2c-4.4 0-8 3.6-8 8 0 5.4 7 11.5 7.3 11.8.2.1.5.2.7.2s.5-.1.7-.2C13 21.5 20 15.4 20 10c0-4.4-3.6-8-8-8m0 17.7c-2.1-2-6-6.3-6-9.7 0-3.3 2.7-6 6-6s6 2.7 6 6-3.9 7.7-6 9.7M12 6c-2.2 0-4 1.8-4 4s1.8 4 4 4 4-1.8 4-4-1.8-4-4-4m0 6c-1.1 0-2-.9-2-2s.9-2 2-2 2 .9 2 2-.9 2-2 2"/></svg>

<svg width="24" height="24" viewBox="0 0 24 24" fill="none" xmlns="http://www.w3.org/2000/svg">
<path d="M12 2C7.6 2 4 5.6 4 10C4 15.4 11 21.5 11.3 21.8C11.5 21.9 11.8 22 12 22C12.2 22 12.5 21.9 12.7 21.8C13 21.5 20 15.4 20 10C20 5.6 16.4 2 12 2ZM12 19.7C9.9 17.7 6 13.4 6 10C6 6.7 8.7 4 12 4C15.3 4 18 6.7 18 10C18 13.3 14.1 17.7 12 19.7ZM12 6C9.8 6 8 7.8 8 10C8 12.2 9.8 14 12 14C14.2 14 16 12.2 16 10C16 7.8 14.2 6 12 6ZM12 12C10.9 12 10 11.1 10 10C10 8.9 10.9 8 12 8C13.1 8 14 8.9 14 10C14 11.1 13.1 12 12 12Z" fill="black"/>
</svg>
